client/public/assets/icons/utility/save.svg

<?xml version="1.0"?><svg xmlns="http://www.w3.org/2000/svg" width="52" height="52" viewBox="0 0 52 52"><path fill="#fff" d="m37.1 4v13.6c0 1-0.8 1.9-1.9 1.9h-21.3c-1 0-1.9-0.8-1.9-1.9v-13.6h-4c-2.2 0-4 1.8-4 4v36c0 2.2 1.8 4 4 4h36c2.2 0 4-1.8 4-4v-32.8l-7.2-7.2h-3.7z m7 38.1c0 1-0.8 1.9-1.9 1.9h-32.3c-1 0-1.9-0.8-1.9-1.9v-16.7c0-1 0.8-1.9 1.9-1.9h32.3c1 0 1.9 0.8 1.9 1.9v16.7z m-19.3-28.5c0 1 0.8 1.9 1.9 1.9h4.6c1 0 1.9-0.8 1.9-1.9v-9.6h-8.3l-0.1 9.6z"></path></svg>

<?xml version="1.0" encoding="utf-8"?>
<!-- Generator: Adobe Illustrator 21.0.2, SVG Export Plug-In . SVG Version: 6.00 Build 0)  -->
<svg version="1.1" id="Layer_1" xmlns="http://www.w3.org/2000/svg" xmlns:xlink="http://www.w3.org/1999/xlink" x="0px" y="0px"
	 width="52px" height="52px" viewBox="0 0 52 52" enable-background="new 0 0 52 52" xml:space="preserve">
<path fill="#FFFFFF" d="M37.1,4v13.6c0,1-0.8,1.9-1.9,1.9H13.9c-1,0-1.9-0.8-1.9-1.9V4H8C5.8,4,4,5.8,4,8v36c0,2.2,1.8,4,4,4h36
	c2.2,0,4-1.8,4-4V11.2L40.8,4H37.1z M44.1,42.1c0,1-0.8,1.9-1.9,1.9H9.9c-1,0-1.9-0.8-1.9-1.9V25.4c0-1,0.8-1.9,1.9-1.9h32.3
	c1,0,1.9,0.8,1.9,1.9V42.1z"/>
<g>
	<path fill="#FFFFFF" d="M24.8,13.6c0,1,0.8,1.9,1.9,1.9h4.6c1,0,1.9-0.8,1.9-1.9V4h-8.3L24.8,13.6L24.8,13.6z"/>
</g>
</svg>
